X:1
T:Chapel Royal, 88.68.86
T:Chapel Royal, 88.68.86
T:William Boyce, ca. 1765
T:Public Domain Courtesy of the Cyber Hymnal™
C:William Boyce, ca. 1765
Z:Public Domain
Z:Courtesy of the Cyber Hymnal™
%%score ( 1 2 ) ( 3 4 )
L:1/8
Q:1/4=113
M:4/4
K:G
V:1 treble 
V:2 treble 
V:3 bass 
V:4 bass 
V:1
 [DG]2 | [DG]2 [^CG]2 [DA]2 [DB]2 | [Ec]2 [DA]2 [DB]2 [EG]2 | [DB]2 [Gd]2 [Ge]2 [Fd]2 | %4
 [Ec]2 B2 [DA]2 [^DB]2 | [EG]2 [^DF]2 E2 [=DG]2 | [DF]6 [EA]2 | [=FA]2 [EA]2 [DB]2 [Ec]2 | %8
 [=Fd]2 [EB]2 [Ec]2 [EA]2 | [Ge]2 (dc) [DB]2 [Dd]2 | [CF]2 [DG]2 [DA]2 [DB]2 | %11
 [CE]2 [DG]2 [Ec]2 [DA]2 | [B,G]6 |] %13
V:2
 x2 | x8 | x8 | x8 | x2 (B,C) x4 | x4 E2 x2 | x8 | x8 | x8 | x2 D2 x4 | x8 | x8 | x6 |] %13
V:3
 [G,B,]2 | [G,B,]2 [E,G,]2 [D,F,]2 G,2 | [C,G,]2 [D,F,]2 [G,,G,]2 [C,G,]2 | %3
 [G,,G,]2 [B,,G,]2 [C,C]2 [D,A,]2 | ([E,G,][F,A,]) G,2 [D,F,]2 [B,,F,]2 | %5
 [E,G,]2 [B,,B,]2 [C,G,]2 [G,,B,]2 | [D,A,]6 [A,,C]2 | [D,D]2 [C,A,]2 [B,,^G,]2 [A,,A,]2 | %8
 [D,A,]2 [E,^G,]2 [A,,A,]2 [A,C]2 | [E,C]2 [F,A,]2 [G,B,]2 [B,,G,]2 | %10
 [A,,A,]2 [G,,B,]2 [D,F,]2 [G,,G,]2 | [C,G,]2 [B,,G,]2 [A,,G,]2 [D,F,]2 | [G,,G,]6 |] %13
V:4
 x2 | x6 G,2 | x8 | x8 | x2 G,2 x4 | x8 | x8 | x8 | x8 | x8 | x8 | x8 | x6 |] %13

